; generated by PrusaSlicer 2.3.1+x64 on 2021-05-12 at 09:09:50 UTC


;
;

;
;
; 

; external perimeters extrusion width = 0.45mm
; perimeters extrusion width = 0.45mm
; infill extrusion width = 0.45mm
; solid infill extrusion width = 0.45mm
; top infill extrusion width = 0.40mm
; first layer extrusion width = 0.42mm

M73 P0 R115
M201 X1250 Y1250 Z400 E5000 ; sets maximum accelerations, mm/sec^2
M203 X180 Y180 Z12 E80 ; sets maximum feedrates, mm/sec
M204 P1250 R1250 T1250 ; sets acceleration (P, T) and retract acceleration (R), mm/sec^2
M205 X8.00 Y8.00 Z2.00 E10.00 ; sets the jerk limits, mm/sec
M205 S0 T0 ; sets the minimum extruding and travel feed rate, mm/sec
M107
;TYPE:Custom
G90 ; use absolute coordinates
M83 ; extruder relative mode
M104 S170 ; set extruder temp for bed leveling
M140 S70 ; set bed temp
M109 R170 ; wait for bed leveling temp
M190 S70 ; wait for bed temp
G28 ; home all without mesh bed level
G29 ; mesh bed leveling 
M104 S230 ; set extruder temp
G92 E0.0
G1 Y-2.0 X179 F2400
G1 Z3 F720
M109 S230 ; wait for extruder temp

; intro line
G1 X170 F1000
G1 Z0.2 F720
G1 X110.0 E8.0 F900
G1 X40.0 E10.0 F700
G92 E0.0

M221 S95 ; set flow
G21 ; set units to millimeters
G90 ; use absolute coordinates
M83 ; use relative distances for extrusion
M900 K0.2 ; Filament gcode LA 1.5
; ; Filament gcode LA 1.0
;LAYER_CHANGE
;Z:0.2
;HEIGHT:0.2
;BEFORE_LAYER_CHANGE
G92 E0.0
;0.2


G1 E-3.20000 F4200.000
G1 Z0.200 F9000.000
;AFTER_LAYER_CHANGE
;0.2
G1 Z0.400
G1 X47.330 Y47.308
G1 Z0.200
G1 E3.20000 F2400.000
M204 S800
;TYPE:Skirt
;WIDTH:0.42
G1 F1200.000
G1 X48.295 Y46.343 E0.04278
G1 X50.459 Y44.372 E0.09177
G1 X52.675 Y42.542 E0.09010
G1 X54.978 Y40.818 E0.09022
G1 X57.358 Y39.207 E0.09010
G1 X59.812 Y37.712 E0.09010
G1 X62.334 Y36.334 E0.09010
G1 X64.919 Y35.079 E0.09010
G1 X67.557 Y33.949 E0.08998
G1 X70.253 Y32.943 E0.09022
G1 X72.990 Y32.068 E0.09010
G1 X75.766 Y31.325 E0.09010
G1 X78.574 Y30.714 E0.09010
G1 X81.408 Y30.237 E0.09010
G1 X84.261 Y29.896 E0.09010
G1 X87.128 Y29.691 E0.09010
G1 X90.004 Y29.623 E0.09022
G1 X92.873 Y29.691 E0.08998
G1 X95.740 Y29.896 E0.09010
G1 X98.593 Y30.238 E0.09010
G1 X101.427 Y30.714 E0.09010
G1 X104.235 Y31.325 E0.09010
G1 X107.011 Y32.069 E0.09010
G1 X109.748 Y32.944 E0.09010
G1 X112.492 Y33.970 E0.09186
G1 X115.082 Y35.079 E0.08835
G1 X117.667 Y36.335 E0.09010
G1 X120.189 Y37.712 E0.09010
G1 X122.690 Y39.239 E0.09186
G1 X125.026 Y40.821 E0.08847
G1 X127.367 Y42.576 E0.09174
G1 X129.539 Y44.370 E0.08835
G1 X131.555 Y46.203 E0.08543
G1 X133.657 Y48.295 E0.09298
G1 X135.630 Y50.462 E0.09189
G1 X137.460 Y52.678 E0.09010
G1 X139.182 Y54.978 E0.09010
G1 X140.793 Y57.358 E0.09010
G1 X142.288 Y59.812 E0.09010
G1 X143.666 Y62.334 E0.09010
G1 X144.921 Y64.919 E0.09010
G1 X146.052 Y67.561 E0.09010
G1 X147.057 Y70.253 E0.09010
G1 X147.932 Y72.990 E0.09010
G1 X148.675 Y75.766 E0.09010
G1 X149.286 Y78.574 E0.09010
G1 X149.763 Y81.408 E0.09010
G1 X150.104 Y84.261 E0.09010
G1 X150.309 Y87.128 E0.09010
G1 X150.377 Y90.001 E0.09010
G1 X150.309 Y92.873 E0.09010
G1 X150.104 Y95.740 E0.09010
G1 X149.762 Y98.593 E0.09010
G1 X149.286 Y101.427 E0.09010
G1 X148.675 Y104.235 E0.09010
G1 X147.931 Y107.011 E0.09010
G1 X147.056 Y109.748 E0.09010
G1 X146.052 Y112.440 E0.09010
G1 X144.921 Y115.082 E0.09010
G1 X143.665 Y117.667 E0.09010
G1 X142.288 Y120.189 E0.09010
G1 X140.792 Y122.643 E0.09010
G1 X139.181 Y125.023 E0.09010
G1 X137.459 Y127.323 E0.09010
G1 X135.630 Y129.539 E0.09010
G1 X133.657 Y131.705 E0.09186
G1 X131.626 Y133.734 E0.09002
G1 X129.541 Y135.628 E0.08831
G1 X127.580 Y137.248 E0.07977
G1 X125.031 Y139.175 E0.10018
G1 X122.690 Y140.761 E0.08867
G1 X120.188 Y142.288 E0.09189
G1 X117.669 Y143.664 E0.08998
G1 X115.081 Y144.921 E0.09022
G1 X112.492 Y146.030 E0.08831
G1 X109.750 Y147.055 E0.09177
G1 X107.013 Y147.930 E0.09010
G1 X104.234 Y148.675 E0.09022
G1 X101.426 Y149.286 E0.09010
G1 X98.592 Y149.763 E0.09010
G1 X95.739 Y150.104 E0.09010
G1 X92.872 Y150.309 E0.09010
G1 X90.001 Y150.377 E0.09007
G1 X87.127 Y150.309 E0.09014
G1 X84.260 Y150.104 E0.09010
G1 X81.407 Y149.762 E0.09010
G1 X78.573 Y149.286 E0.09010
G1 X75.765 Y148.675 E0.09010
G1 X72.989 Y147.931 E0.09010
G1 X70.252 Y147.056 E0.09010
G1 X67.560 Y146.052 E0.09010
G1 X64.918 Y144.921 E0.09010
G1 X62.333 Y143.665 E0.09010
G1 X59.811 Y142.288 E0.09010
G1 X57.357 Y140.792 E0.09010
G1 X54.977 Y139.181 E0.09010
G1 X52.677 Y137.459 E0.09010
G1 X50.461 Y135.630 E0.09010
G1 X48.295 Y133.657 E0.09186
G1 X46.303 Y131.665 E0.08835
G1 X44.338 Y129.500 E0.09165
G1 X42.510 Y127.283 E0.09010
G1 X40.822 Y125.028 E0.08831
G1 X39.497 Y123.071 E0.07412
G1 X37.719 Y120.201 E0.10583
G1 X36.341 Y117.679 E0.09010
G1 X35.079 Y115.081 E0.09058
G1 X33.969 Y112.492 E0.08831
G1 X32.943 Y109.747 E0.09189
G1 X32.068 Y107.010 E0.09010
G1 X31.325 Y104.234 E0.09010
G1 X30.714 Y101.426 E0.09010
G1 X30.237 Y98.592 E0.09010
G1 X29.896 Y95.739 E0.09010
G1 X29.691 Y92.872 E0.09010
G1 X29.623 Y89.999 E0.09010
G1 X29.691 Y87.127 E0.09010
G1 X29.896 Y84.260 E0.09010
G1 X30.238 Y81.407 E0.09010
G1 X30.714 Y78.573 E0.09010
G1 X31.325 Y75.765 E0.09010
G1 X32.069 Y72.989 E0.09010
G1 X32.944 Y70.252 E0.09010
G1 X33.970 Y67.508 E0.09186
G1 X35.079 Y64.918 E0.08835
G1 X36.360 Y62.286 E0.09177
G1 X37.741 Y59.763 E0.09018
G1 X39.208 Y57.357 E0.08835
G1 X40.734 Y55.101 E0.08543
G1 X42.538 Y52.680 E0.09465
G1 X44.368 Y50.464 E0.09010
G1 X46.303 Y48.335 E0.09022
G1 X47.288 Y47.350 E0.04365
M204 S1250
; printing object base_0512.stl id:0 copy 0
G1 E-2.24000 F4200.000
;WIPE_START
G1 F7200.000
G1 X48.295 Y46.343 E-0.78942
G1 X48.458 Y46.194 E-0.12259
;WIPE_END
G1 E-0.04800 F4200.000
G1 Z0.400 F9000.000
G1 X82.468 Y82.278
G1 Z0.200
G1 E3.20000 F2400.000
M204 S800
;TYPE:Perimeter
G1 F1200.000
G1 X82.862 Y81.912 E0.01686
G1 X83.274 Y81.566 E0.01686
G1 X83.703 Y81.241 E0.01686
G1 X84.147 Y80.938 E0.01686
G1 X84.606 Y80.658 E0.01686
G1 X85.079 Y80.401 E0.01686
G1 X85.563 Y80.167 E0.01686
G1 X86.059 Y79.958 E0.01686
G1 X86.564 Y79.774 E0.01686
G1 X87.078 Y79.616 E0.01686
G1 X87.600 Y79.483 E0.01686
G1 X88.127 Y79.377 E0.01686
G1 X88.659 Y79.296 E0.01686
G1 X89.197 Y79.242 E0.01698
G1 X89.991 Y79.213 E0.02491
G1 X90.802 Y79.242 E0.02544
G1 X91.341 Y79.296 E0.01699
G1 X91.873 Y79.377 E0.01686
G1 X92.400 Y79.483 E0.01686
G1 X92.922 Y79.616 E0.01686
G1 X93.436 Y79.774 E0.01686
G1 X93.941 Y79.958 E0.01686
G1 X94.437 Y80.167 E0.01686
G1 X94.921 Y80.401 E0.01686
G1 X95.394 Y80.658 E0.01686
G1 X95.853 Y80.938 E0.01686
G1 X96.297 Y81.241 E0.01686
G1 X96.726 Y81.566 E0.01686
G1 X97.138 Y81.912 E0.01686
G1 X97.532 Y82.278 E0.01686
G1 X97.908 Y82.663 E0.01686
G1 X98.264 Y83.066 E0.01686
G1 X98.599 Y83.487 E0.01686
G1 X98.913 Y83.923 E0.01686
G1 X99.205 Y84.375 E0.01686
G1 X99.474 Y84.841 E0.01686
G1 X99.719 Y85.320 E0.01686
G1 X99.940 Y85.810 E0.01686
G1 X100.137 Y86.311 E0.01686
G1 X100.308 Y86.820 E0.01686
G1 X100.454 Y87.338 E0.01686
G1 X100.573 Y87.863 E0.01686
G1 X100.667 Y88.392 E0.01686
G1 X100.734 Y88.926 E0.01686
G1 X100.774 Y89.462 E0.01686
G1 X100.787 Y90.000 E0.01686
G1 X100.774 Y90.538 E0.01686
G1 X100.734 Y91.074 E0.01686
G1 X100.667 Y91.608 E0.01686
G1 X100.573 Y92.137 E0.01686
G1 X100.454 Y92.662 E0.01686
G1 X100.308 Y93.180 E0.01686
G1 X100.137 Y93.689 E0.01686
G1 X99.940 Y94.190 E0.01686
G1 X99.719 Y94.680 E0.01686
G1 X99.474 Y95.159 E0.01686
G1 X99.205 Y95.625 E0.01686
G1 X98.913 Y96.077 E0.01686
G1 X98.599 Y96.513 E0.01686
G1 X98.264 Y96.934 E0.01686
G1 X97.908 Y97.337 E0.01686
G1 X97.532 Y97.722 E0.01686
G1 X97.138 Y98.088 E0.01686
G1 X96.726 Y98.434 E0.01686
G1 X96.297 Y98.759 E0.01686
G1 X95.853 Y99.062 E0.01686
G1 X95.394 Y99.342 E0.01686
G1 X94.921 Y99.599 E0.01686
G1 X94.437 Y99.833 E0.01686
G1 X93.941 Y100.042 E0.01686
G1 X93.436 Y100.226 E0.01686
G1 X92.922 Y100.384 E0.01686
G1 X92.400 Y100.517 E0.01686
G1 X91.873 Y100.623 E0.01686
G1 X91.341 Y100.704 E0.01686
G1 X90.803 Y100.758 E0.01698
G1 X90.011 Y100.787 E0.02484
G1 X89.198 Y100.758 E0.02552
G1 X88.659 Y100.704 E0.01699
G1 X88.127 Y100.623 E0.01686
G1 X87.600 Y100.517 E0.01686
G1 X87.078 Y100.384 E0.01686
G1 X86.564 Y100.226 E0.01686
G1 X86.059 Y100.042 E0.01686
G1 X85.563 Y99.833 E0.01686
G1 X85.079 Y99.599 E0.01686
G1 X84.606 Y99.342 E0.01686
G1 X84.147 Y99.062 E0.01686
G1 X83.703 Y98.759 E0.01686
G1 X83.274 Y98.434 E0.01686
G1 X82.862 Y98.088 E0.01686
G1 X82.468 Y97.722 E0.01686
G1 X82.092 Y97.337 E0.01686
G1 X81.736 Y96.934 E0.01686
G1 X81.401 Y96.513 E0.01686
G1 X81.087 Y96.077 E0.01686
G1 X80.795 Y95.625 E0.01686
G1 X80.526 Y95.159 E0.01686
G1 X80.281 Y94.680 E0.01686
G1 X80.060 Y94.190 E0.01686
G1 X79.863 Y93.689 E0.01686
G1 X79.692 Y93.180 E0.01686
G1 X79.546 Y92.662 E0.01686
G1 X79.427 Y92.137 E0.01686
G1 X79.333 Y91.608 E0.01686
G1 X79.266 Y91.074 E0.01686
G1 X79.226 Y90.538 E0.01686
G1 X79.213 Y90.000 E0.01686
G1 X79.226 Y89.462 E0.01686
G1 X79.266 Y88.926 E0.01686
G1 X79.333 Y88.392 E0.01686
G1 X79.427 Y87.863 E0.01686
G1 X79.546 Y87.338 E0.01686
G1 X79.692 Y86.820 E0.01686
G1 X79.863 Y86.311 E0.01686
G1 X80.060 Y85.810 E0.01686
G1 X80.281 Y85.320 E0.01686
G1 X80.526 Y84.841 E0.01686
G1 X80.795 Y84.375 E0.01686
G1 X81.087 Y83.923 E0.01686
G1 X81.401 Y83.487 E0.01686
G1 X81.736 Y83.066 E0.01686
G1 X82.092 Y82.663 E0.01686
G1 X82.426 Y82.321 E0.01498
M204 S1250
G1 X82.696 Y82.584 F9000.000
M204 S800
;TYPE:External perimeter
G1 F1200.000
G1 X83.112 Y82.195 E0.01786
G1 X83.509 Y81.861 E0.01627
G1 X83.923 Y81.548 E0.01627
G1 X84.352 Y81.255 E0.01627
G1 X84.795 Y80.985 E0.01627
G1 X85.251 Y80.736 E0.01627
G1 X85.718 Y80.511 E0.01627
G1 X86.197 Y80.309 E0.01627
G1 X86.685 Y80.132 E0.01628
G1 X87.181 Y79.979 E0.01627
G1 X87.684 Y79.851 E0.01627
G1 X88.192 Y79.748 E0.01628
G1 X88.706 Y79.671 E0.01627
G1 X89.223 Y79.619 E0.01632
G1 X89.992 Y79.590 E0.02410
G1 X90.777 Y79.619 E0.02463
G1 X91.294 Y79.671 E0.01632
G1 X91.808 Y79.748 E0.01627
G1 X92.316 Y79.851 E0.01627
G1 X92.819 Y79.979 E0.01627
G1 X93.315 Y80.132 E0.01627
G1 X93.803 Y80.309 E0.01628
G1 X94.282 Y80.511 E0.01627
G1 X94.749 Y80.736 E0.01627
G1 X95.205 Y80.985 E0.01627
G1 X95.648 Y81.255 E0.01627
G1 X96.077 Y81.548 E0.01627
G1 X96.491 Y81.861 E0.01628
G1 X96.888 Y82.195 E0.01628
G1 X97.269 Y82.548 E0.01627
G1 X97.631 Y82.919 E0.01627
G1 X97.975 Y83.308 E0.01627
G1 X98.298 Y83.714 E0.01628
G1 X98.601 Y84.136 E0.01627
G1 X98.883 Y84.572 E0.01627
G1 X99.142 Y85.021 E0.01627
G1 X99.379 Y85.483 E0.01627
G1 X99.593 Y85.956 E0.01628
G1 X99.782 Y86.440 E0.01627
G1 X99.948 Y86.932 E0.01627
G1 X100.088 Y87.431 E0.01627
G1 X100.204 Y87.937 E0.01627
G1 X100.294 Y88.448 E0.01627
G1 X100.358 Y88.963 E0.01628
G1 X100.397 Y89.481 E0.01627
G1 X100.410 Y90.000 E0.01627
G1 X100.397 Y90.519 E0.01627
G1 X100.358 Y91.037 E0.01627
G1 X100.294 Y91.552 E0.01628
G1 X100.204 Y92.063 E0.01627
G1 X100.088 Y92.569 E0.01627
G1 X99.948 Y93.068 E0.01627
G1 X99.782 Y93.560 E0.01627
G1 X99.593 Y94.044 E0.01627
G1 X99.379 Y94.517 E0.01628
G1 X99.142 Y94.979 E0.01627
G1 X98.883 Y95.428 E0.01627
G1 X98.601 Y95.864 E0.01628
G1 X98.298 Y96.286 E0.01627
G1 X97.975 Y96.692 E0.01628
G1 X97.631 Y97.081 E0.01627
G1 X97.269 Y97.452 E0.01627
G1 X96.888 Y97.805 E0.01627
G1 X96.491 Y98.139 E0.01628
G1 X96.077 Y98.452 E0.01628
G1 X95.648 Y98.745 E0.01627
G1 X95.205 Y99.015 E0.01627
G1 X94.749 Y99.264 E0.01627
G1 X94.282 Y99.489 E0.01627
G1 X93.803 Y99.691 E0.01627
G1 X93.315 Y99.868 E0.01628
G1 X92.819 Y100.021 E0.01627
G1 X92.316 Y100.149 E0.01627
G1 X91.808 Y100.252 E0.01627
G1 X91.294 Y100.329 E0.01627
G1 X90.777 Y100.381 E0.01632
G1 X90.011 Y100.410 E0.02403
G1 X89.223 Y100.381 E0.02471
G1 X88.706 Y100.329 E0.01632
G1 X88.192 Y100.252 E0.01627
G1 X87.684 Y100.149 E0.01628
G1 X87.181 Y100.021 E0.01627
G1 X86.685 Y99.868 E0.01627
G1 X86.197 Y99.691 E0.01628
G1 X85.718 Y99.489 E0.01627
G1 X85.251 Y99.264 E0.01627
G1 X84.795 Y99.015 E0.01627
G1 X84.352 Y98.745 E0.01627
G1 X83.923 Y98.452 E0.01627
G1 X83.509 Y98.139 E0.01627
G1 X83.112 Y97.805 E0.01627
G1 X82.731 Y97.452 E0.01627
G1 X82.369 Y97.081 E0.01628
G1 X82.025 Y96.692 E0.01627
G1 X81.702 Y96.286 E0.01627
G1 X81.399 Y95.864 E0.01627
G1 X81.117 Y95.428 E0.01628
G1 X80.858 Y94.979 E0.01627
G1 X80.621 Y94.517 E0.01627
G1 X80.407 Y94.044 E0.01628
G1 X80.218 Y93.560 E0.01627
G1 X80.052 Y93.068 E0.01627
G1 X79.912 Y92.569 E0.01627
G1 X79.796 Y92.063 E0.01627
G1 X79.706 Y91.552 E0.01628
G1 X79.642 Y91.037 E0.01627
G1 X79.603 Y90.519 E0.01628
G1 X79.590 Y90.000 E0.01627
G1 X79.603 Y89.481 E0.01627
G1 X79.642 Y88.963 E0.01627
G1 X79.706 Y88.448 E0.01627
G1 X79.796 Y87.937 E0.01628
G1 X79.912 Y87.431 E0.01627
G1 X80.052 Y86.932 E0.01627
G1 X80.218 Y86.440 E0.01627
G1 X80.407 Y85.956 E0.01627
G1 X80.621 Y85.483 E0.01628
G1 X80.858 Y85.021 E0.01627
G1 X81.117 Y84.572 E0.01627
G1 X81.399 Y84.136 E0.01627
G1 X81.702 Y83.714 E0.01627
G1 X82.025 Y83.308 E0.01627
G1 X82.654 Y82.627 E0.02907
M204 S1250
G1 X82.593 Y82.198 F9000.000
G1 E-2.24000 F4200.000
;WIPE_START
G1 F7200.000
G1 X83.112 Y82.195 E-0.34887
G1 X83.509 Y81.861 E-0.28765
G1 X83.906 Y81.561 E-0.27548
;WIPE_END
G1 E-0.04800 F4200.000
G1 Z0.400 F9000.000
G1 X91.632 Y70.827
G1 Z0.200
G1 E3.20000 F2400.000
M204 S800
;TYPE:Perimeter
G1 F1200.000
G1 X91.632 Y49.216 E0.67759
G1 X94.456 Y49.457 E0.08886
G1 X96.434 Y49.723 E0.06259
G1 X98.398 Y50.087 E0.06259
G1 X100.340 Y50.545 E0.06259
G1 X102.259 Y51.098 E0.06259
G1 X104.147 Y51.745 E0.06259
G1 X106.002 Y52.483 E0.06259
G1 X107.775 Y53.291 E0.06107
G1 X109.593 Y54.227 E0.06411
G1 X111.320 Y55.228 E0.06260
G1 X112.996 Y56.313 E0.06259
G1 X114.616 Y57.479 E0.06259
G1 X116.177 Y58.721 E0.06254
G1 X117.678 Y60.041 E0.06269
G1 X119.095 Y61.415 E0.06188
G1 X120.472 Y62.888 E0.06322
G1 X121.764 Y64.414 E0.06267
G1 X122.977 Y65.998 E0.06257
G1 X124.112 Y67.640 E0.06259
G1 X125.165 Y69.336 E0.06259
G1 X126.134 Y71.081 E0.06259
G1 X127.017 Y72.872 E0.06259
G1 X127.811 Y74.704 E0.06259
G1 X128.514 Y76.572 E0.06259
G1 X129.125 Y78.473 E0.06259
G1 X129.642 Y80.401 E0.06259
G1 X130.266 Y83.287 E0.09258
G1 X108.024 Y83.287 E0.69740
G1 X107.441 Y81.942 E0.04596
G1 X107.031 Y81.107 E0.02916
G1 X106.580 Y80.293 E0.02916
G1 X106.091 Y79.502 E0.02916
G1 X105.564 Y78.736 E0.02916
G1 X105.001 Y77.996 E0.02916
G1 X104.402 Y77.284 E0.02916
G1 X103.770 Y76.602 E0.02915
G1 X103.085 Y75.933 E0.03002
G1 X102.410 Y75.333 E0.02832
G1 X101.686 Y74.750 E0.02916
G1 X100.934 Y74.202 E0.02916
G1 X100.157 Y73.691 E0.02916
G1 X99.356 Y73.219 E0.02915
G1 X98.508 Y72.774 E0.03002
G1 X97.689 Y72.393 E0.02831
G1 X96.828 Y72.042 E0.02915
G1 X95.925 Y71.724 E0.03002
G1 X95.060 Y71.466 E0.02832
G1 X94.157 Y71.242 E0.02916
G1 X93.244 Y71.063 E0.02916
G1 X91.692 Y70.836 E0.04920
M204 S1250
G1 X92.009 Y70.501 F9000.000
M204 S800
;TYPE:External perimeter
G1 F1200.000
G1 X92.009 Y49.627 E0.65450
G1 X94.415 Y49.832 E0.07570
G1 X96.375 Y50.096 E0.06202
G1 X98.320 Y50.456 E0.06202
G1 X100.245 Y50.910 E0.06202
G1 X102.145 Y51.458 E0.06202
G1 X104.017 Y52.099 E0.06202
G1 X105.854 Y52.830 E0.06202
G1 X107.610 Y53.630 E0.06049
G1 X109.412 Y54.558 E0.06353
G1 X111.123 Y55.550 E0.06202
G1 X112.783 Y56.625 E0.06202
G1 X114.389 Y57.779 E0.06202
G1 X115.935 Y59.010 E0.06196
G1 X117.422 Y60.318 E0.06211
G1 X118.826 Y61.680 E0.06130
G1 X120.190 Y63.139 E0.06264
G1 X121.470 Y64.650 E0.06209
G1 X122.672 Y66.220 E0.06199
G1 X123.797 Y67.847 E0.06202
G1 X124.840 Y69.527 E0.06202
M73 P0 R114
G1 X125.800 Y71.256 E0.06202
G1 X126.674 Y73.031 E0.06202
G1 X127.461 Y74.845 E0.06202
G1 X128.158 Y76.697 E0.06202
G1 X128.763 Y78.580 E0.06202
G1 X129.275 Y80.490 E0.06202
G1 X129.799 Y82.910 E0.07764
G1 X108.271 Y82.910 E0.67498
G1 X107.784 Y81.784 E0.03849
G1 X107.365 Y80.932 E0.02974
G1 X106.906 Y80.103 E0.02974
G1 X106.407 Y79.296 E0.02974
G1 X105.870 Y78.515 E0.02974
G1 X105.295 Y77.760 E0.02974
G1 X104.685 Y77.034 E0.02974
G1 X104.040 Y76.339 E0.02973
G1 X103.342 Y75.657 E0.03059
G1 X102.654 Y75.045 E0.02888
G1 X101.915 Y74.450 E0.02974
G1 X101.149 Y73.892 E0.02973
G1 X100.356 Y73.371 E0.02974
G1 X99.539 Y72.890 E0.02973
G1 X98.675 Y72.436 E0.03059
G1 X97.840 Y72.047 E0.02888
G1 X96.962 Y71.689 E0.02973
