; generated by PrusaSlicer 2.3.1+x64 on 2021-05-12 at 09:10:38 UTC


;
;

;
;
; 

; external perimeters extrusion width = 0.45mm
; perimeters extrusion width = 0.45mm
; infill extrusion width = 0.45mm
; solid infill extrusion width = 0.45mm
; top infill extrusion width = 0.40mm
; first layer extrusion width = 0.42mm

M73 P0 R42
M201 X1250 Y1250 Z400 E5000 ; sets maximum accelerations, mm/sec^2
M203 X180 Y180 Z12 E80 ; sets maximum feedrates, mm/sec
M204 P1250 R1250 T1250 ; sets acceleration (P, T) and retract acceleration (R), mm/sec^2
M205 X8.00 Y8.00 Z2.00 E10.00 ; sets the jerk limits, mm/sec
M205 S0 T0 ; sets the minimum extruding and travel feed rate, mm/sec
M107
;TYPE:Custom
G90 ; use absolute coordinates
M83 ; extruder relative mode
M104 S170 ; set extruder temp for bed leveling
M140 S70 ; set bed temp
M109 R170 ; wait for bed leveling temp
M190 S70 ; wait for bed temp
G28 ; home all without mesh bed level
G29 ; mesh bed leveling 
M104 S230 ; set extruder temp
G92 E0.0
G1 Y-2.0 X179 F2400
G1 Z3 F720
M109 S230 ; wait for extruder temp

; intro line
G1 X170 F1000
G1 Z0.2 F720
G1 X110.0 E8.0 F900
G1 X40.0 E10.0 F700
G92 E0.0

M221 S95 ; set flow
G21 ; set units to millimeters
G90 ; use absolute coordinates
M83 ; use relative distances for extrusion
M900 K0.2 ; Filament gcode LA 1.5
; ; Filament gcode LA 1.0
;LAYER_CHANGE
;Z:0.2
;HEIGHT:0.2
;BEFORE_LAYER_CHANGE
G92 E0.0
;0.2


G1 E-3.20000 F4200.000
G1 Z0.200 F9000.000
;AFTER_LAYER_CHANGE
;0.2
G1 Z0.400
G1 X49.809 Y49.777
G1 Z0.200
G1 E3.20000 F2400.000
M204 S800
;TYPE:Skirt
;WIDTH:0.42
G1 F1200.000
G1 X50.710 Y48.876 E0.03996
G1 X52.751 Y47.017 E0.08655
G1 X54.838 Y45.294 E0.08488
G1 X57.009 Y43.669 E0.08500
G1 X59.250 Y42.152 E0.08488
G1 X61.562 Y40.743 E0.08488
G1 X63.938 Y39.445 E0.08488
G1 X66.373 Y38.263 E0.08488
G1 X68.861 Y37.197 E0.08488
G1 X71.398 Y36.251 E0.08488
G1 X73.976 Y35.427 E0.08488
G1 X76.591 Y34.726 E0.08488
G1 X79.236 Y34.151 E0.08488
G1 X81.906 Y33.702 E0.08488
G1 X84.594 Y33.380 E0.08488
G1 X87.294 Y33.187 E0.08488
G1 X90.004 Y33.123 E0.08500
G1 X92.707 Y33.187 E0.08476
G1 X95.407 Y33.381 E0.08488
G1 X98.095 Y33.702 E0.08488
G1 X100.765 Y34.151 E0.08488
G1 X103.410 Y34.726 E0.08488
G1 X106.025 Y35.427 E0.08488
G1 X108.603 Y36.251 E0.08488
G1 X111.189 Y37.218 E0.08655
G1 X113.628 Y38.263 E0.08321
G1 X116.063 Y39.446 E0.08488
G1 X118.439 Y40.743 E0.08488
G1 X120.797 Y42.183 E0.08663
G1 X123.035 Y43.701 E0.08479
G1 X125.157 Y45.290 E0.08309
G1 X127.103 Y46.896 E0.07914
G1 X129.245 Y48.831 E0.09049
G1 X131.124 Y50.710 E0.08333
G1 X132.983 Y52.751 E0.08655
G1 X134.706 Y54.838 E0.08488
G1 X136.331 Y57.009 E0.08500
G1 X137.848 Y59.250 E0.08488
G1 X139.257 Y61.562 E0.08488
G1 X140.555 Y63.938 E0.08488
G1 X141.737 Y66.373 E0.08488
G1 X142.803 Y68.861 E0.08488
G1 X143.749 Y71.398 E0.08488
G1 X144.573 Y73.976 E0.08488
G1 X145.274 Y76.591 E0.08488
G1 X145.849 Y79.236 E0.08488
G1 X146.298 Y81.906 E0.08488
G1 X146.620 Y84.594 E0.08488
G1 X146.813 Y87.294 E0.08488
G1 X146.877 Y90.001 E0.08488
G1 X146.813 Y92.707 E0.08488
G1 X146.619 Y95.407 E0.08488
G1 X146.298 Y98.095 E0.08488
G1 X145.849 Y100.765 E0.08488
G1 X145.274 Y103.410 E0.08488
G1 X144.573 Y106.025 E0.08488
G1 X143.749 Y108.603 E0.08488
G1 X142.782 Y111.189 E0.08655
G1 X141.737 Y113.628 E0.08321
G1 X140.554 Y116.063 E0.08488
G1 X139.257 Y118.439 E0.08488
G1 X137.817 Y120.797 E0.08663
G1 X136.299 Y123.035 E0.08479
G1 X134.710 Y125.157 E0.08309
G1 X133.104 Y127.103 E0.07914
G1 X131.169 Y129.245 E0.09049
G1 X129.290 Y131.124 E0.08333
G1 X127.249 Y132.983 E0.08655
M73 P1 R42
G1 X125.162 Y134.706 E0.08488
G1 X122.991 Y136.331 E0.08500
G1 X120.750 Y137.848 E0.08488
G1 X118.438 Y139.257 E0.08488
G1 X116.062 Y140.555 E0.08488
G1 X113.627 Y141.737 E0.08488
G1 X111.139 Y142.803 E0.08488
G1 X108.602 Y143.749 E0.08488
G1 X106.024 Y144.573 E0.08488
G1 X103.409 Y145.274 E0.08488
G1 X100.764 Y145.849 E0.08488
G1 X98.094 Y146.298 E0.08488
G1 X95.406 Y146.620 E0.08488
G1 X92.706 Y146.813 E0.08488
G1 X89.999 Y146.877 E0.08488
G1 X87.293 Y146.813 E0.08488
G1 X84.593 Y146.619 E0.08488
G1 X81.905 Y146.298 E0.08488
G1 X79.235 Y145.849 E0.08488
G1 X76.590 Y145.274 E0.08488
G1 X73.975 Y144.573 E0.08488
G1 X71.397 Y143.749 E0.08488
G1 X68.811 Y142.782 E0.08655
G1 X66.372 Y141.737 E0.08321
G1 X63.937 Y140.554 E0.08488
G1 X61.561 Y139.257 E0.08488
G1 X59.203 Y137.817 E0.08663
G1 X56.965 Y136.299 E0.08479
G1 X54.843 Y134.710 E0.08309
G1 X52.897 Y133.104 E0.07914
G1 X50.755 Y131.169 E0.09049
G1 X48.876 Y129.290 E0.08333
G1 X47.017 Y127.249 E0.08655
G1 X45.294 Y125.162 E0.08488
G1 X43.669 Y122.991 E0.08500
G1 X42.152 Y120.750 E0.08488
G1 X40.743 Y118.438 E0.08488
G1 X39.445 Y116.062 E0.08488
G1 X38.263 Y113.627 E0.08488
G1 X37.197 Y111.139 E0.08488
G1 X36.251 Y108.602 E0.08488
G1 X35.427 Y106.024 E0.08488
G1 X34.726 Y103.409 E0.08488
G1 X34.151 Y100.764 E0.08488
G1 X33.702 Y98.094 E0.08488
G1 X33.380 Y95.406 E0.08488
G1 X33.187 Y92.706 E0.08488
G1 X33.123 Y89.999 E0.08488
G1 X33.187 Y87.293 E0.08488
G1 X33.381 Y84.593 E0.08488
G1 X33.702 Y81.905 E0.08488
G1 X34.151 Y79.235 E0.08488
G1 X34.726 Y76.590 E0.08488
G1 X35.427 Y73.975 E0.08488
G1 X36.251 Y71.397 E0.08488
G1 X37.218 Y68.811 E0.08655
G1 X38.263 Y66.372 E0.08321
G1 X39.446 Y63.937 E0.08488
G1 X40.743 Y61.561 E0.08488
G1 X42.183 Y59.203 E0.08663
G1 X43.701 Y56.965 E0.08479
G1 X45.290 Y54.843 E0.08309
G1 X46.896 Y52.897 E0.07914
G1 X48.831 Y50.755 E0.09049
G1 X49.767 Y49.820 E0.04149
M204 S1250
; printing object ring_lock_fit_0511.stl id:0 copy 0
G1 E-2.24000 F4200.000
;WIPE_START
G1 F7200.000
G1 X50.710 Y48.876 E-0.73948
G1 X50.940 Y48.666 E-0.17252
;WIPE_END
G1 E-0.04800 F4200.000
G1 Z0.400 F9000.000
G1 X53.734 Y53.734
G1 Z0.200
G1 E3.20000 F2400.000
M204 S800
;TYPE:Perimeter
G1 F1200.000
G1 X55.558 Y51.999 E0.07893
G1 X57.464 Y50.354 E0.07893
G1 X59.448 Y48.806 E0.07893
G1 X61.506 Y47.356 E0.07893
G1 X63.633 Y46.009 E0.07893
G1 X65.823 Y44.769 E0.07893
G1 X68.073 Y43.636 E0.07898
G1 X70.375 Y42.616 E0.07893
G1 X72.723 Y41.710 E0.07893
G1 X75.113 Y40.921 E0.07893
G1 X77.540 Y40.249 E0.07893
G1 X79.996 Y39.698 E0.07893
G1 X82.476 Y39.268 E0.07893
G1 X84.974 Y38.960 E0.07893
G1 X87.485 Y38.774 E0.07893
G1 X89.990 Y38.713 E0.07857
G1 X92.518 Y38.775 E0.07928
G1 X95.028 Y38.960 E0.07893
G1 X97.527 Y39.268 E0.07893
G1 X100.007 Y39.698 E0.07893
G1 X102.463 Y40.250 E0.07893
G1 X104.889 Y40.921 E0.07893
G1 X107.279 Y41.711 E0.07893
G1 X109.628 Y42.617 E0.07893
G1 X111.929 Y43.637 E0.07893
G1 X114.177 Y44.769 E0.07893
G1 X116.368 Y46.010 E0.07893
G1 X118.494 Y47.357 E0.07893
G1 X120.552 Y48.806 E0.07893
G1 X122.537 Y50.355 E0.07893
G1 X124.443 Y51.999 E0.07893
G1 X126.266 Y53.735 E0.07893
G1 X128.002 Y55.558 E0.07893
G1 X129.646 Y57.464 E0.07893
G1 X131.195 Y59.449 E0.07893
G1 X132.644 Y61.507 E0.07893
M73 P1 R41
G1 X133.991 Y63.633 E0.07893
G1 X135.232 Y65.824 E0.07893
G1 X136.363 Y68.072 E0.07893
G1 X137.383 Y70.373 E0.07893
G1 X138.289 Y72.722 E0.07893
G1 X139.079 Y75.112 E0.07893
G1 X139.750 Y77.538 E0.07893
G1 X140.302 Y79.995 E0.07893
G1 X140.732 Y82.475 E0.07893
G1 X141.040 Y84.973 E0.07893
G1 X141.225 Y87.483 E0.07893
G1 X141.287 Y90.000 E0.07893
G1 X141.225 Y92.517 E0.07893
G1 X141.040 Y95.027 E0.07893
G1 X140.732 Y97.525 E0.07893
G1 X140.302 Y100.005 E0.07893
G1 X139.750 Y102.462 E0.07893
G1 X139.079 Y104.888 E0.07893
G1 X138.289 Y107.278 E0.07893
G1 X137.383 Y109.627 E0.07893
G1 X136.363 Y111.928 E0.07893
G1 X135.232 Y114.176 E0.07893
G1 X133.991 Y116.367 E0.07893
G1 X132.644 Y118.493 E0.07893
G1 X131.195 Y120.551 E0.07893
G1 X129.646 Y122.536 E0.07893
G1 X128.002 Y124.442 E0.07893
G1 X126.266 Y126.265 E0.07893
G1 X124.443 Y128.001 E0.07893
G1 X122.537 Y129.645 E0.07893
G1 X120.552 Y131.194 E0.07893
G1 X118.494 Y132.643 E0.07893
G1 X116.368 Y133.990 E0.07893
G1 X114.177 Y135.231 E0.07893
G1 X111.929 Y136.363 E0.07893
G1 X109.628 Y137.383 E0.07893
G1 X107.279 Y138.289 E0.07893
G1 X104.889 Y139.079 E0.07893
G1 X102.463 Y139.750 E0.07893
G1 X100.007 Y140.302 E0.07893
G1 X97.527 Y140.732 E0.07893
G1 X95.028 Y141.040 E0.07893
G1 X92.518 Y141.225 E0.07893
G1 X90.001 Y141.287 E0.07893
G1 X87.485 Y141.226 E0.07893
G1 X84.974 Y141.040 E0.07893
G1 X82.476 Y140.732 E0.07893
G1 X79.996 Y140.302 E0.07893
G1 X77.540 Y139.751 E0.07893
G1 X75.113 Y139.079 E0.07893
G1 X72.723 Y138.290 E0.07893
G1 X70.375 Y137.384 E0.07893
G1 X68.073 Y136.364 E0.07893
G1 X65.823 Y135.231 E0.07898
G1 X63.633 Y133.991 E0.07893
G1 X61.506 Y132.644 E0.07893
G1 X59.448 Y131.194 E0.07893
G1 X57.464 Y129.646 E0.07893
G1 X55.558 Y128.001 E0.07893
G1 X53.734 Y126.266 E0.07893
G1 X51.999 Y124.442 E0.07893
G1 X50.354 Y122.536 E0.07893
G1 X48.806 Y120.552 E0.07893
G1 X47.356 Y118.494 E0.07893
G1 X46.009 Y116.367 E0.07893
G1 X44.769 Y114.177 E0.07893
G1 X43.637 Y111.928 E0.07893
G1 X42.617 Y109.627 E0.07893
G1 X41.711 Y107.278 E0.07893
G1 X40.921 Y104.887 E0.07895
G1 X40.250 Y102.461 E0.07892
G1 X39.698 Y100.005 E0.07892
G1 X39.268 Y97.525 E0.07892
G1 X38.960 Y95.027 E0.07893
G1 X38.774 Y92.516 E0.07893
G1 X38.713 Y90.000 E0.07892
G1 X38.774 Y87.483 E0.07893
G1 X38.960 Y84.973 E0.07892
G1 X39.268 Y82.475 E0.07893
G1 X39.698 Y79.995 E0.07892
G1 X40.250 Y77.539 E0.07892
G1 X40.921 Y75.113 E0.07893
G1 X41.711 Y72.722 E0.07895
G1 X42.617 Y70.373 E0.07893
G1 X43.637 Y68.072 E0.07893
G1 X44.769 Y65.823 E0.07893
G1 X46.009 Y63.633 E0.07893
G1 X47.356 Y61.506 E0.07893
G1 X48.806 Y59.448 E0.07893
G1 X50.354 Y57.464 E0.07893
G1 X51.999 Y55.558 E0.07893
G1 X53.693 Y53.778 E0.07705
M204 S1250
M73 P2 R41
G1 X53.966 Y54.038 F9000.000
M204 S800
;TYPE:External perimeter
G1 F1200.000
G1 X55.811 Y52.278 E0.07994
G1 X57.703 Y50.646 E0.07835
G1 X59.673 Y49.109 E0.07835
G1 X61.716 Y47.670 E0.07835
G1 X63.827 Y46.333 E0.07835
G1 X66.001 Y45.101 E0.07835
G1 X68.235 Y43.977 E0.07840
G1 X70.519 Y42.965 E0.07835
G1 X72.850 Y42.065 E0.07835
G1 X75.223 Y41.282 E0.07835
G1 X77.631 Y40.615 E0.07835
G1 X80.069 Y40.068 E0.07835
G1 X82.531 Y39.641 E0.07835
G1 X85.011 Y39.335 E0.07835
G1 X87.503 Y39.151 E0.07835
G1 X89.990 Y39.090 E0.07799
G1 X92.499 Y39.151 E0.07870
G1 X94.991 Y39.335 E0.07835
G1 X97.471 Y39.641 E0.07835
G1 X99.933 Y40.068 E0.07835
G1 X102.371 Y40.616 E0.07835
G1 X104.779 Y41.282 E0.07835
G1 X107.152 Y42.066 E0.07835
G1 X109.483 Y42.966 E0.07835
G1 X111.768 Y43.978 E0.07835
G1 X114.000 Y45.102 E0.07835
G1 X116.174 Y46.333 E0.07835
G1 X118.285 Y47.670 E0.07835
G1 X120.328 Y49.109 E0.07835
G1 X122.298 Y50.646 E0.07835
G1 X124.190 Y52.279 E0.07835
G1 X125.999 Y54.002 E0.07835
G1 X127.722 Y55.811 E0.07835
G1 X129.354 Y57.703 E0.07835
G1 X130.892 Y59.673 E0.07835
G1 X132.330 Y61.716 E0.07835
G1 X133.667 Y63.827 E0.07835
G1 X134.899 Y66.001 E0.07835
G1 X136.022 Y68.233 E0.07835
G1 X137.035 Y70.518 E0.07835
G1 X137.934 Y72.849 E0.07835
G1 X138.718 Y75.222 E0.07835
G1 X139.384 Y77.630 E0.07835
G1 X139.932 Y80.068 E0.07835
G1 X140.359 Y82.530 E0.07835
G1 X140.665 Y85.010 E0.07835
G1 X140.849 Y87.502 E0.07835
G1 X140.910 Y90.000 E0.07835
G1 X140.849 Y92.498 E0.07835
G1 X140.665 Y94.990 E0.07835
G1 X140.359 Y97.470 E0.07835
G1 X139.932 Y99.932 E0.07835
G1 X139.384 Y102.370 E0.07835
G1 X138.718 Y104.778 E0.07835
G1 X137.934 Y107.151 E0.07835
G1 X137.035 Y109.482 E0.07835
G1 X136.022 Y111.767 E0.07835
G1 X134.899 Y113.999 E0.07835
G1 X133.667 Y116.173 E0.07835
G1 X132.330 Y118.284 E0.07835
G1 X130.892 Y120.327 E0.07835
G1 X129.354 Y122.297 E0.07835
G1 X127.722 Y124.189 E0.07835
G1 X125.999 Y125.998 E0.07835
G1 X124.190 Y127.721 E0.07835
G1 X122.298 Y129.354 E0.07835
G1 X120.328 Y130.891 E0.07835
G1 X118.285 Y132.330 E0.07835
G1 X116.174 Y133.667 E0.07835
G1 X114.000 Y134.898 E0.07835
G1 X111.768 Y136.022 E0.07835
G1 X109.483 Y137.034 E0.07835
G1 X107.152 Y137.934 E0.07835
G1 X104.779 Y138.718 E0.07835
G1 X102.371 Y139.384 E0.07835
G1 X99.933 Y139.932 E0.07835
G1 X97.471 Y140.359 E0.07835
G1 X94.991 Y140.665 E0.07835
G1 X92.499 Y140.849 E0.07835
G1 X90.001 Y140.910 E0.07835
G1 X87.503 Y140.849 E0.07835
G1 X85.011 Y140.665 E0.07835
G1 X82.531 Y140.359 E0.07835
G1 X80.069 Y139.932 E0.07835
G1 X77.631 Y139.385 E0.07835
G1 X75.223 Y138.718 E0.07835
G1 X72.850 Y137.935 E0.07835
G1 X70.519 Y137.035 E0.07835
G1 X68.235 Y136.023 E0.07835
G1 X66.001 Y134.899 E0.07840
G1 X63.827 Y133.667 E0.07835
G1 X61.716 Y132.330 E0.07835
G1 X59.673 Y130.891 E0.07835
G1 X57.703 Y129.354 E0.07835
G1 X55.811 Y127.722 E0.07835
G1 X54.001 Y125.999 E0.07835
G1 X52.278 Y124.189 E0.07835
G1 X50.646 Y122.297 E0.07835
G1 X49.109 Y120.327 E0.07835
G1 X47.670 Y118.284 E0.07835
G1 X46.333 Y116.173 E0.07835
G1 X45.101 Y113.999 E0.07835
G1 X43.978 Y111.767 E0.07835
G1 X42.965 Y109.482 E0.07835
G1 X42.066 Y107.151 E0.07835
G1 X41.282 Y104.778 E0.07837
G1 X40.615 Y102.370 E0.07834
G1 X40.068 Y99.932 E0.07834
G1 X39.641 Y97.470 E0.07834
G1 X39.335 Y94.990 E0.07835
G1 X39.151 Y92.498 E0.07835
G1 X39.090 Y90.000 E0.07834
G1 X39.151 Y87.502 E0.07835
G1 X39.335 Y85.010 E0.07834
G1 X39.641 Y82.530 E0.07835
G1 X40.068 Y80.068 E0.07834
G1 X40.615 Y77.630 E0.07834
G1 X41.282 Y75.222 E0.07835
G1 X42.066 Y72.849 E0.07837
G1 X42.965 Y70.518 E0.07835
G1 X43.978 Y68.233 E0.07835
G1 X45.101 Y66.001 E0.07835
G1 X46.333 Y63.827 E0.07835
G1 X47.670 Y61.716 E0.07835
G1 X49.109 Y59.673 E0.07835
G1 X50.646 Y57.703 E0.07835
G1 X52.278 Y55.811 E0.07835
G1 X53.925 Y54.081 E0.07488
M204 S1250
G1 X53.862 Y53.652 F9000.000
G1 E-2.24000 F4200.000
;WIPE_START
G1 F7200.000
G1 X55.114 Y52.944 E-0.91200
;WIPE_END
G1 E-0.04800 F4200.000
G1 Z0.400 F9000.000
G1 X51.952 Y52.108
G1 Z0.200
G1 E3.20000 F2400.000
M204 S800
;TYPE:Perimeter
G1 F1200.000
G1 X52.934 Y51.126 E0.04355
G1 X54.826 Y49.407 E0.08016
G1 X56.797 Y47.779 E0.08016
G1 X58.844 Y46.247 E0.08016
G1 X60.961 Y44.814 E0.08016
G1 X63.144 Y43.483 E0.08016
G1 X65.387 Y42.258 E0.08016
G1 X67.687 Y41.141 E0.08016
G1 X70.037 Y40.135 E0.08016
G1 X72.432 Y39.241 E0.08016
G1 X74.867 Y38.463 E0.08016
G1 X77.337 Y37.801 E0.08016
G1 X79.835 Y37.258 E0.08016
G1 X82.356 Y36.834 E0.08016
G1 X84.894 Y36.531 E0.08016
G1 X87.444 Y36.348 E0.08016
G1 X90.000 Y36.287 E0.08016
G1 X92.556 Y36.348 E0.08016
G1 X95.106 Y36.531 E0.08016
G1 X97.644 Y36.834 E0.08016
G1 X100.165 Y37.258 E0.08016
G1 X102.663 Y37.801 E0.08016
G1 X105.133 Y38.463 E0.08016
G1 X107.568 Y39.241 E0.08016
G1 X109.963 Y40.135 E0.08016
G1 X112.313 Y41.141 E0.08016
G1 X114.613 Y42.258 E0.08016
G1 X116.856 Y43.483 E0.08016
G1 X119.039 Y44.814 E0.08016
G1 X121.156 Y46.247 E0.08016
G1 X123.203 Y47.779 E0.08016
G1 X125.174 Y49.407 E0.08016
G1 X127.066 Y51.126 E0.08016
G1 X128.874 Y52.934 E0.08016
G1 X130.593 Y54.826 E0.08016
G1 X132.221 Y56.797 E0.08016
G1 X133.753 Y58.844 E0.08016
G1 X135.186 Y60.961 E0.08016
G1 X136.517 Y63.144 E0.08016
G1 X137.742 Y65.387 E0.08016
G1 X138.859 Y67.687 E0.08016
G1 X139.865 Y70.037 E0.08016
G1 X140.759 Y72.432 E0.08016
G1 X141.537 Y74.867 E0.08016
G1 X142.199 Y77.337 E0.08016
G1 X142.742 Y79.835 E0.08016
G1 X143.166 Y82.356 E0.08016
G1 X143.469 Y84.894 E0.08016
G1 X143.652 Y87.444 E0.08016
G1 X143.713 Y90.000 E0.08016
G1 X143.652 Y92.556 E0.08016
G1 X143.469 Y95.106 E0.08016
G1 X143.166 Y97.644 E0.08016
G1 X142.742 Y100.165 E0.08016
G1 X142.199 Y102.663 E0.08016
G1 X141.537 Y105.133 E0.08016
G1 X140.759 Y107.568 E0.08016
G1 X139.865 Y109.963 E0.08016
G1 X138.859 Y112.313 E0.08016
G1 X137.742 Y114.613 E0.08016
G1 X136.517 Y116.856 E0.08016
G1 X135.186 Y119.039 E0.08016
G1 X133.753 Y121.156 E0.08016
G1 X132.221 Y123.203 E0.08016
G1 X130.593 Y125.174 E0.08016
G1 X128.874 Y127.066 E0.08016
G1 X127.066 Y128.874 E0.08016
G1 X125.174 Y130.593 E0.08016
G1 X123.203 Y132.221 E0.08016
G1 X121.156 Y133.753 E0.08016
M73 P3 R41
G1 X119.039 Y135.186 E0.08016
G1 X116.856 Y136.517 E0.08016
G1 X114.613 Y137.742 E0.08016
G1 X112.313 Y138.859 E0.08016
G1 X109.963 Y139.865 E0.08016
G1 X107.568 Y140.759 E0.08016
G1 X105.133 Y141.537 E0.08016
G1 X102.663 Y142.199 E0.08016
G1 X100.165 Y142.742 E0.08016
G1 X97.644 Y143.166 E0.08016
G1 X95.106 Y143.469 E0.08016
G1 X92.556 Y143.652 E0.08016
G1 X90.000 Y143.713 E0.08016
G1 X87.444 Y143.652 E0.08016
G1 X84.894 Y143.469 E0.08016
